X:5507
T:Fred Roden's Reel
C:Jim Magill
R:reel
M:4/4
L:1/8
K:D
(3ABc|d2dc dAFA|d2fg a2f2|gfeg fedf|edcB A2(3ABc|
d2dc dAFA|d2fg a2f2|bgec Aceg|f2d2 d2:|
|:z2|A,DFA d2d2|DFAd f4|A,DFA d2d2|afdf [A2e2][A2e2]|
A,DFA d2d2|DFAd f4|bgec Aceg|f2d2 d2:|
